packages/foundations/assets/icons/functional/images/devices/telephone_24.svg

<svg width="24" height="24" viewBox="0 0 24 24" fill="none" xmlns="http://www.w3.org/2000/svg">
<g clip-path="url(#clip0_185_750)">
<path fill-rule="evenodd" clip-rule="evenodd" d="M7.03334 2.35944C7.89807 2.35944 8.52913 2.66323 9.06669 3.20079L11.7777 5.93524C12.1049 6.28579 12.2685 6.72984 12.2685 7.24403C12.2685 7.75811 12.0816 8.31905 11.6375 8.73973L10.0248 10.3757C11.2869 12.0584 11.7777 12.5726 13.624 14.045L15.2132 12.409C15.6339 11.965 16.1715 11.7546 16.7324 11.7546C17.1531 11.7546 17.6205 11.8715 17.9243 12.1986L20.7054 15.0265C21.2196 15.5641 21.4767 16.2185 21.5 16.943C21.4767 17.6675 21.1962 18.4621 20.6354 19.0931C19.1863 20.7758 17.9243 21.6406 15.9144 21.6406C13.3436 21.6406 10.282 20.0747 7.1736 16.8962C3.85493 13.4139 2.2891 10.2823 2.52277 7.47769C2.75643 4.95363 5.30387 2.35944 7.03334 2.35944ZM7.15022 4.34594C6.0752 4.34594 4.53265 6.30917 4.43914 7.54782C4.0886 12.3389 11.7075 19.7007 15.7274 19.7007C17.34 19.7007 17.9477 19.2334 19.1863 17.8311C19.4434 17.5506 19.5602 17.2468 19.5602 16.943C19.5602 16.7092 19.4667 16.4989 19.35 16.382L16.6623 13.6711L14.4186 15.938C14.2317 16.125 14.0447 16.2419 13.8343 16.2419C13.0865 16.2419 11.2168 14.6526 10.282 13.7411C9.48737 12.9465 7.82804 10.9132 7.82804 10.2589C7.82804 9.67459 8.66939 8.99687 10.3755 7.2674L7.6644 4.55633C7.52414 4.41607 7.36061 4.34594 7.15022 4.34594Z" fill="#1A1C1F"/>
</g>
<defs>
<clipPath id="clip0_185_750">
<rect width="24" height="24" fill="white"/>
</clipPath>
</defs>
</svg>

<svg xmlns="http://www.w3.org/2000/svg" width="24" height="24" fill="none"><g clip-path="url(#a)"><path fill="#1A1C1F" fill-rule="evenodd" d="M7.033 2.36c.865 0 1.496.303 2.034.84l2.71 2.735c.328.35.492.795.492 1.309s-.187 1.075-.632 1.496l-1.612 1.636c1.262 1.682 1.753 2.197 3.599 3.669l1.59-1.636c.42-.444.958-.654 1.518-.654.421 0 .889.116 1.192.444l2.781 2.828c.515.537.772 1.191.795 1.916a3.45 3.45 0 0 1-.865 2.15c-1.449 1.683-2.71 2.548-4.72 2.548-2.571 0-5.633-1.566-8.741-4.745-3.32-3.482-4.885-6.614-4.651-9.418.233-2.524 2.78-5.119 4.51-5.119m.117 1.986c-1.075 0-2.617 1.963-2.71 3.202-.351 4.79 7.267 12.153 11.287 12.153 1.613 0 2.22-.468 3.46-1.87.256-.28.373-.584.373-.888a.82.82 0 0 0-.21-.561l-2.688-2.71-2.243 2.266c-.187.187-.374.304-.585.304-.748 0-2.617-1.59-3.552-2.5-.795-.796-2.454-2.829-2.454-3.483 0-.584.841-1.262 2.548-2.992l-2.712-2.71a.69.69 0 0 0-.514-.211" clip-rule="evenodd"/></g><defs><clipPath id="a"><path fill="#fff" d="M0 0h24v24H0z"/></clipPath></defs></svg>
